X: 16102
T: Green Forest, The
R: jig
M: 6/8
K: Gmajor
fe|:dBG G(3BAG|GBd edg|dBG GBd|ecA ABc|
dBG E3|DGB ABc|ded B2A|1 AGF Gze:|2 AGF GBd||
|:gfg GBd|gfg afd|gfg GBd|ecA Acd|
[1g3 d(3fed|cBc ABc|ded B2A|AGF GBd:|
[2gfe ded|cBc ABc|ded BdA|AGF Gze||

